symbols/web/folder_copy/materialsymbolsoutlined/folder_copy_wght600gradN25_20px.svg

<svg xmlns="http://www.w3.org/2000/svg" height="20" width="20"><path d="M2.917 17.625q-.896 0-1.542-.635-.646-.636-.646-1.552V5.625h2.188v9.813h13.771v2.187Zm3.833-3.833q-.896 0-1.542-.636-.646-.635-.646-1.552V2.979q0-.917.646-1.552T6.75.792H10l1.812 1.812h5.271q.896 0 1.542.646t.646 1.542v6.812q0 .917-.646 1.552-.646.636-1.542.636Zm0-2.188h10.333V4.792h-6.166L9.083 2.979H6.75v8.625Zm0 0V2.979v8.625Z"/></svg>

<svg xmlns="http://www.w3.org/2000/svg" height="20" width="20"><path d="M2.917 17.625Q2.021 17.625 1.375 16.99Q0.729 16.354 0.729 15.438V5.625H2.917V15.438Q2.917 15.438 2.917 15.438Q2.917 15.438 2.917 15.438H16.688V17.625ZM6.75 13.792Q5.854 13.792 5.208 13.156Q4.562 12.521 4.562 11.604V2.979Q4.562 2.062 5.208 1.427Q5.854 0.792 6.75 0.792H10L11.812 2.604H17.083Q17.979 2.604 18.625 3.25Q19.271 3.896 19.271 4.792V11.604Q19.271 12.521 18.625 13.156Q17.979 13.792 17.083 13.792ZM6.75 11.604H17.083Q17.083 11.604 17.083 11.604Q17.083 11.604 17.083 11.604V4.792Q17.083 4.792 17.083 4.792Q17.083 4.792 17.083 4.792H10.917L9.083 2.979H6.75Q6.75 2.979 6.75 2.979Q6.75 2.979 6.75 2.979V11.604Q6.75 11.604 6.75 11.604Q6.75 11.604 6.75 11.604ZM6.75 11.604Q6.75 11.604 6.75 11.604Q6.75 11.604 6.75 11.604V2.979Q6.75 2.979 6.75 2.979Q6.75 2.979 6.75 2.979V4.792Q6.75 4.792 6.75 4.792Q6.75 4.792 6.75 4.792V11.604Q6.75 11.604 6.75 11.604Q6.75 11.604 6.75 11.604Z"/></svg>
